logos/calibre.svg

<?xml version="1.0" encoding="UTF-8"?>
<svg width="512px" height="115px" viewBox="0 0 512 115" version="1.1" xmlns="http://www.w3.org/2000/svg" preserveAspectRatio="xMidYMid">
    <title>Calibre</title>
    <g>
        <path d="M11.4943106,89.8783349 C30.9153493,101.953592 45.6983914,86.5576392 45.6983914,86.5576392 C40.4154664,105.434376 28.2715998,108.873995 28.2715998,108.873995 L31.0114024,114.349027 L72.5155251,114.349027 L75.2599018,108.873995 C75.2599018,108.873995 63.1114612,105.434376 57.8331101,86.5530652 C57.8331101,86.5530652 72.6115783,101.953592 92.032617,89.8737609 C111.453656,77.8030777 111.247827,30.9199768 51.7634638,0 C-7.72089985,30.9108289 -7.9267281,77.7985037 11.4943106,89.8783349 Z" fill="#3057F4"></path>
        <path d="M133.742568,57.9063471 C133.742568,51.6766121 134.730544,45.9545868 136.701921,40.7448452 C138.668724,35.5351035 141.358213,31.0617696 144.76124,27.3202694 C148.149575,23.5920029 152.296467,20.6319419 156.923403,18.6388913 C161.625435,16.5897568 166.711679,15.5651895 172.172989,15.5651895 C177.01224,15.5651895 181.403242,16.2558576 185.345997,17.6371939 C189.284177,19.0185301 192.687204,20.907576 195.555078,23.3134795 C198.44669,25.7496524 200.841421,28.7205471 202.608126,32.0634671 C204.484579,35.606305 205.821207,39.4096048 206.57375,43.347429 L189.640946,43.347429 C188.209296,39.6105028 186.128144,36.5779666 183.392915,34.2681163 C180.662261,31.949118 176.92076,30.7919059 172.172989,30.7919059 C168.861441,30.7919059 165.906662,31.4597042 163.304078,32.7953008 C160.68083,34.1537255 158.40529,36.0974813 156.653539,38.4761605 C154.749136,41.067218 153.338172,43.9868288 152.491234,47.0889292 C151.51925,50.6130018 151.043549,54.2554233 151.07788,57.910921 C151.07788,61.8262317 151.548998,65.435087 152.491234,68.7283389 C153.428896,72.0215909 154.819381,74.8711687 156.653539,77.2816461 C158.432441,79.6325196 160.701842,81.5679099 163.304078,82.9533579 C165.902088,84.3346941 168.861441,85.0253622 172.177563,85.0253622 C176.92076,85.0253622 180.662261,83.8681501 183.392915,81.5491518 C186.128144,79.2347275 188.209296,76.1655996 189.640946,72.3371942 L206.57375,72.3371942 C205.836373,76.3212563 204.499309,80.1705199 202.608126,83.753801 C200.831453,87.1095552 198.411563,90.082741 195.486468,92.5037886 C192.445573,94.9842522 188.989081,96.9060744 185.277387,98.1800742 C181.380372,99.5614105 177.01224,100.252079 172.172989,100.252079 C166.711679,100.252079 161.625435,99.2275113 156.923403,97.1783768 C152.296467,95.1853262 148.149575,92.2252652 144.76124,88.4969987 C141.358213,84.7554985 138.668724,80.2821646 136.701921,75.0724229 C134.730544,69.8626813 133.742568,64.140656 133.742568,57.910921 L133.742568,57.9063471 Z M250.781084,98.916482 L250.781084,95.7147092 C249.797682,96.6889629 247.93608,97.6494948 245.205425,98.5825828 C242.280379,99.5485417 239.215464,100.023039 236.13526,99.9867889 C233.22075,100.005188 230.320667,99.5763455 227.536214,98.7152277 C224.965989,97.9332432 222.569996,96.664594 220.478592,94.9783015 C218.461674,93.3258681 216.834286,91.2486836 215.712524,88.8949333 C214.546164,86.4936037 213.965271,83.7355052 213.965271,80.6160638 C213.931888,77.9114768 214.530173,75.2364223 215.712524,72.8037383 C216.869044,70.453798 218.545937,68.398353 220.61581,66.7935534 C222.719833,65.1469274 225.185198,63.8524965 228.007332,62.9194084 C230.97972,61.9605877 234.087065,61.486455 237.210141,61.5152023 C239.844398,61.5207626 242.465929,61.8807615 245.004171,62.5855092 C247.602181,63.2944732 249.527818,64.0949164 250.781084,64.9868388 L250.781084,60.5821143 C250.781084,57.9978263 249.998936,55.8160469 248.430068,54.036776 C246.861199,52.2529312 244.423278,51.3655827 241.107156,51.3655827 C238.687531,51.3655827 236.761893,51.8549966 235.330243,52.8292503 C233.875279,53.8364735 232.789466,55.2917194 232.238245,56.973259 L216.380322,56.973259 C216.828571,54.3020658 217.752511,51.809257 219.138421,49.4948327 C220.524331,47.1804084 222.317324,45.1495697 224.512825,43.4160384 C226.792438,41.6350411 229.36058,40.2581459 232.105601,39.3452131 C235.135975,38.3387495 238.312105,37.8410784 241.505091,37.8723976 C249.568984,37.8723976 255.794145,39.8986624 260.185148,43.9511919 C264.57615,48.0037214 266.771652,53.6342674 266.771652,60.847404 L266.771652,98.916482 L250.77651,98.916482 L250.781084,98.916482 Z M250.781084,78.3473791 C250.491528,77.5132322 249.980897,76.7733694 249.303694,76.2067653 C247.649037,74.8067337 245.657887,73.862396 243.526781,73.4669626 C241.083271,72.993911 238.569568,73.0172437 236.13526,73.535572 C234.924742,73.7844958 233.764947,74.2360426 232.70479,74.8711687 C231.724847,75.4484386 230.89688,76.251316 230.289738,77.2130367 C229.69542,78.1985399 229.393985,79.3328897 229.420685,80.4834189 C229.420685,81.8190155 229.708845,82.9304881 230.289738,83.8224105 C230.870631,84.7143329 231.680222,85.4690364 232.709363,86.0956691 C233.768413,86.7287196 234.926609,87.1786994 236.13526,87.4266918 C238.569881,87.9421718 241.083012,87.9654992 243.526781,87.4953012 C244.688568,87.2711771 245.768022,86.9372779 246.751424,86.4936037 C247.734826,86.0499295 248.585582,85.5147761 249.303694,84.8927173 C250.021806,84.2660847 250.51122,83.5571207 250.781084,82.7521036 L250.781084,78.3473791 L250.781084,78.3473791 Z M297.005534,98.916482 L280.342594,98.916482 L280.342594,12.0935531 L297.005534,12.0935531 L297.005534,98.916482 Z M328.044434,98.916482 L311.381494,98.916482 L311.381494,39.2079942 L328.044434,39.2079942 L328.044434,98.916482 Z M329.659042,21.9778829 C329.659042,24.8274607 328.671067,27.1190151 326.699689,28.8571204 C324.732886,30.5952256 322.400166,31.4642782 319.715251,31.4642782 C317.117241,31.4642782 314.83026,30.5952256 312.858883,28.8571204 C310.89208,27.1190151 309.904104,24.8274607 309.904104,21.9778829 C309.904104,19.2152104 310.89208,16.9693955 312.858883,15.2312903 C314.83026,13.4931851 317.112667,12.6241325 319.715251,12.6241325 C322.400166,12.6241325 324.732886,13.4931851 326.699689,15.2312903 C328.671067,16.9693955 329.659042,19.2152104 329.659042,21.9778829 Z M359.220553,98.916482 L342.557612,98.916482 L342.557612,12.0935531 L359.220553,12.0935531 L359.220553,44.285091 C359.847185,43.4846478 360.697942,42.6842046 361.772823,41.8791875 C362.878948,41.0606423 364.07242,40.3672627 365.331365,39.8117571 C366.630369,39.230864 368.043723,38.7597461 369.566852,38.4075511 C371.108408,38.0489793 372.686178,37.8694082 374.268884,37.8723976 C378.659887,37.8723976 382.534032,38.6957106 385.89132,40.3423366 C389.253181,41.9889626 392.116481,44.2393514 394.490366,47.0889292 C396.868826,49.9385069 398.657245,53.2363328 399.864771,56.973259 C401.07687,60.7147592 401.680633,64.7672887 401.680633,69.1308475 C401.707528,73.2304066 401.094879,77.3090796 399.864771,81.2198266 C398.73643,84.8535311 396.910957,88.2325996 394.490366,91.1681919 C392.145435,93.9947689 389.210459,96.2740588 385.89132,97.8461751 C382.534032,99.4470615 378.659887,100.252079 374.268884,100.252079 C372.65885,100.252079 371.089982,100.073694 369.566852,99.7169252 C368.113994,99.3851723 366.69583,98.9165348 365.331365,98.3172931 C364.082952,97.7647981 362.891173,97.0923159 361.772823,96.3093242 C360.81329,95.6598315 359.953503,94.8740049 359.220553,93.976604 L359.220553,98.916482 L359.220553,98.916482 Z M359.220553,78.8825325 C360.203954,80.9270931 361.704213,82.5965889 363.72133,83.8910199 C365.733873,85.1808769 368.043723,85.8258054 370.641733,85.8258054 C372.882974,85.8258054 374.895517,85.405001 376.68851,84.5588182 C378.476929,83.7126354 379.981762,82.5554232 381.189288,81.0826078 C382.396813,79.6189402 383.339049,77.8579652 384.011422,75.8088307 C384.699599,73.6504567 385.039285,71.3961731 385.017693,69.1308475 C385.039285,66.865522 384.699599,64.6112384 384.011422,62.4528644 C383.408899,60.5324844 382.45165,58.7421019 381.189288,57.1745133 C378.597504,54.0302697 374.716003,52.2359591 370.641733,52.2986708 C368.130629,52.2986708 365.848222,52.9435993 363.78994,54.2334563 C361.814119,55.4288662 360.225771,57.1696951 359.215979,59.2465177 L359.215979,78.8825325 L359.220553,78.8825325 Z M448.84732,55.5050175 C447.644087,54.777018 446.32656,54.2574296 444.950305,53.9681666 C443.492368,53.6542015 442.004917,53.4977891 440.513563,53.5016226 C437.737168,53.5016226 435.299247,54.2151605 433.195225,55.6376624 C431.086629,57.0647382 429.719014,59.1596124 429.092382,61.9177109 L429.092382,98.916482 L412.434016,98.916482 L412.434016,39.2079942 L429.096956,39.2079942 L429.096956,45.0855342 C430.350221,42.9494944 432.188953,41.2113892 434.608579,39.8757926 C437.034864,38.5382287 439.76481,37.8482597 442.535253,37.8723976 C444.058382,37.8723976 445.380257,37.9821727 446.500878,38.2062968 C447.616924,38.4304209 448.403645,38.6728408 448.851894,38.9381305 L448.851894,55.5050175 L448.84732,55.5050175 Z M511.597491,79.413112 C510.609516,85.7389001 507.833121,90.7931271 503.263734,94.5757929 C498.698921,98.3584587 492.652145,100.252079 485.123405,100.252079 C480.736976,100.252079 476.748482,99.497375 473.167071,97.9833939 C469.673824,96.5328338 466.534767,94.3454785 463.964261,91.5707005 C461.352193,88.716108 459.320225,85.3807594 457.98152,81.7504061 C456.54987,77.9677403 455.831758,73.7596961 455.831758,69.1262736 C455.831758,64.5889042 456.54987,60.4265996 457.98152,56.6393599 C459.33113,52.9964783 461.361474,49.6436176 463.964261,46.759604 C466.527996,43.943115 469.666239,41.7095345 473.167071,40.2096917 C476.814929,38.6393812 480.749533,37.8449839 484.720896,37.8769716 C489.203378,37.8769716 493.118689,38.6088053 496.48055,40.0770468 C499.714426,41.4577263 502.604896,43.5330556 504.946952,46.1558411 C507.229359,48.7355551 508.976612,51.8549966 510.184137,55.5050175 C511.396237,59.1550384 512,63.1618283 512,67.5253872 L512,72.602484 L471.954971,72.602484 C472.137929,74.830003 472.563308,76.833398 473.23568,78.6126688 C473.903478,80.3965136 474.799975,81.9059208 475.920595,83.1546121 C477.041216,84.4033035 478.38596,85.3363916 479.950255,85.9584503 C481.519123,86.5850829 483.243507,86.8961123 485.123405,86.8961123 C487.904373,86.8961123 490.278259,86.2694796 492.245062,85.0207883 C494.216439,83.7766708 495.515444,81.9104947 496.142077,79.413112 L511.597491,79.413112 L511.597491,79.413112 Z M484.858115,51.2283639 C481.888961,51.1913228 479.013047,52.264693 476.794222,54.2380303 C475.678248,55.2232522 474.745954,56.3986857 474.040697,57.7096667 C473.226714,59.2359024 472.660118,60.8816545 472.362053,62.5855092 L495.739568,62.5855092 C495.667125,61.064214 495.396502,59.5588727 494.934551,58.1076014 C494.509482,56.7698819 493.799458,55.5402144 492.853399,54.50332 C491.910662,53.4781197 490.766065,52.6589933 489.491538,52.0974165 C488.02477,51.4871074 486.446351,51.1910566 484.858115,51.2283639 L484.858115,51.2283639 Z" fill="#000000"></path>
    </g>
</svg>

<svg preserveAspectRatio="xMidYMid" viewBox="0 0 512 115" xmlns="http://www.w3.org/2000/svg">
  <path fill="#3057F4" d="M11.494 89.878c19.421 12.076 34.204-3.32 34.204-3.32-5.283 18.876-17.426 22.316-17.426 22.316l2.74 5.475h41.504l2.744-5.475s-12.149-3.44-17.427-22.32c0 0 14.779 15.4 34.2 3.32C111.453 77.804 111.248 30.92 51.763 0-7.72 30.91-7.927 77.799 11.494 89.878Z"/>
  <path d="M133.743 57.906c0-6.23.988-11.951 2.959-17.161 1.967-5.21 4.656-9.683 8.06-13.425a35.311 35.311 0 0 1 12.161-8.681c4.702-2.05 9.789-3.074 15.25-3.074 4.84 0 9.23.69 13.173 2.072 3.938 1.382 7.341 3.27 10.21 5.676a29.41 29.41 0 0 1 7.052 8.75 40.25 40.25 0 0 1 3.966 11.284H189.64c-1.432-3.736-3.513-6.769-6.248-9.079-2.73-2.319-6.472-3.476-11.22-3.476-3.312 0-6.266.668-8.869 2.003a19.256 19.256 0 0 0-6.65 5.681 26.19 26.19 0 0 0-4.163 8.613 39.313 39.313 0 0 0-1.413 10.822c0 3.915.471 7.524 1.413 10.817.938 3.294 2.328 6.143 4.163 8.554a20.308 20.308 0 0 0 6.65 5.671c2.598 1.382 5.557 2.072 8.874 2.072 4.743 0 8.484-1.157 11.215-3.476 2.735-2.314 4.816-5.383 6.248-9.212h16.933a40.09 40.09 0 0 1-3.966 11.417 28.93 28.93 0 0 1-7.122 8.75 33.207 33.207 0 0 1-10.209 5.676c-3.897 1.381-8.265 2.072-13.104 2.072-5.461 0-10.548-1.024-15.25-3.074a35.311 35.311 0 0 1-12.162-8.681c-3.403-3.742-6.092-8.215-8.06-13.425-1.97-5.21-2.958-10.931-2.958-17.161v-.005Zm117.038 41.01v-3.201c-.983.974-2.845 1.934-5.576 2.868a27.878 27.878 0 0 1-9.07 1.404 28.496 28.496 0 0 1-8.599-1.272 20.967 20.967 0 0 1-7.057-3.737 17.72 17.72 0 0 1-4.766-6.083c-1.167-2.401-1.748-5.16-1.748-8.279a17.381 17.381 0 0 1 1.748-7.812 17.235 17.235 0 0 1 4.903-6.01c2.104-1.647 4.57-2.942 7.391-3.875a29.104 29.104 0 0 1 9.203-1.404c2.634.006 5.256.366 7.794 1.07 2.598.71 4.524 1.51 5.777 2.402v-4.405c0-2.584-.782-4.766-2.35-6.545-1.57-1.784-4.008-2.671-7.324-2.671-2.42 0-4.345.489-5.777 1.463a8.114 8.114 0 0 0-3.092 4.144H216.38a21.299 21.299 0 0 1 2.758-7.478c1.386-2.315 3.18-4.345 5.375-6.079a25.303 25.303 0 0 1 7.593-4.07 28.921 28.921 0 0 1 9.4-1.474c8.063 0 14.288 2.027 18.68 6.08 4.39 4.052 6.586 9.682 6.586 16.895v38.07h-15.995.004Zm0-20.569a4.876 4.876 0 0 0-1.477-2.14 12.464 12.464 0 0 0-5.777-2.74 18.557 18.557 0 0 0-7.392.069c-1.21.248-2.37.7-3.43 1.335a7.145 7.145 0 0 0-2.415 2.342 6.06 6.06 0 0 0-.87 3.27c0 1.336.289 2.447.87 3.34.58.891 1.39 1.646 2.42 2.273a10.978 10.978 0 0 0 3.425 1.33c2.435.516 4.948.54 7.392.07a14.515 14.515 0 0 0 3.224-1.002c.984-.444 1.835-.98 2.553-1.601.718-.627 1.207-1.336 1.477-2.14v-4.406Zm46.225 20.57h-16.663V12.093h16.663v86.822Zm31.038 0h-16.663v-59.71h16.663v59.708Zm1.615-76.94c0 2.85-.988 5.142-2.96 6.88-1.966 1.738-4.299 2.607-6.984 2.607-2.598 0-4.885-.869-6.856-2.607-1.967-1.738-2.955-4.03-2.955-6.88 0-2.762.988-5.008 2.955-6.746 1.971-1.738 4.254-2.607 6.856-2.607 2.685 0 5.018.87 6.985 2.607 1.971 1.738 2.959 3.984 2.959 6.747Zm29.562 76.94h-16.663V12.093h16.663v32.191c.626-.8 1.477-1.6 2.552-2.406a18.616 18.616 0 0 1 3.558-2.067 23.118 23.118 0 0 1 4.236-1.404 20.583 20.583 0 0 1 4.702-.536c4.39 0 8.265.824 11.622 2.47a25.878 25.878 0 0 1 8.6 6.747c2.378 2.85 4.166 6.147 5.374 9.884 1.212 3.742 1.816 7.794 1.816 12.158.027 4.1-.586 8.178-1.816 12.089a29.292 29.292 0 0 1-5.375 9.948 25.175 25.175 0 0 1-8.599 6.678c-3.357 1.601-7.231 2.406-11.622 2.406-1.61 0-3.179-.178-4.702-.535a23.597 23.597 0 0 1-4.236-1.4 21.077 21.077 0 0 1-3.558-2.008c-.96-.65-1.82-1.435-2.552-2.332v4.94Zm0-20.034c.983 2.044 2.483 3.714 4.5 5.008 2.013 1.29 4.323 1.935 6.92 1.935 2.242 0 4.255-.421 6.048-1.267 1.788-.846 3.293-2.004 4.5-3.476 1.208-1.464 2.15-3.225 2.822-5.274a21.315 21.315 0 0 0 1.007-6.678 21.315 21.315 0 0 0-1.007-6.678 16.1 16.1 0 0 0-2.822-5.278 13.402 13.402 0 0 0-10.547-4.876c-2.511 0-4.794.645-6.852 1.934a11.984 11.984 0 0 0-4.574 5.014v19.636h.005Zm89.626-23.378a12.491 12.491 0 0 0-3.897-1.537 20.82 20.82 0 0 0-4.436-.466c-2.777 0-5.215.713-7.319 2.136-2.108 1.427-3.476 3.522-4.103 6.28v36.998h-16.658V39.208h16.663v5.878c1.253-2.137 3.092-3.875 5.512-5.21a16.128 16.128 0 0 1 7.926-2.004c1.523 0 2.845.11 3.966.334 1.116.224 1.903.467 2.35.732v16.567h-.004Zm62.75 23.908c-.987 6.326-3.764 11.38-8.333 15.163-4.565 3.782-10.612 5.676-18.14 5.676-4.387 0-8.376-.755-11.957-2.269a26.287 26.287 0 0 1-9.203-6.412 29.84 29.84 0 0 1-5.982-9.82c-1.432-3.783-2.15-7.991-2.15-12.625 0-4.537.718-8.7 2.15-12.487a30.627 30.627 0 0 1 5.982-9.88 26.62 26.62 0 0 1 9.203-6.55 28.638 28.638 0 0 1 11.554-2.332c4.482 0 8.398.732 11.76 2.2a23.968 23.968 0 0 1 8.466 6.079c2.282 2.58 4.03 5.699 5.237 9.349 1.212 3.65 1.816 7.657 1.816 12.02v5.077h-40.045c.183 2.228.608 4.231 1.28 6.01.668 1.785 1.565 3.294 2.686 4.543a10.607 10.607 0 0 0 4.03 2.803c1.568.627 3.293.938 5.172.938 2.781 0 5.155-.627 7.122-1.875 1.971-1.244 3.27-3.11 3.897-5.608h15.455Zm-26.739-28.185a11.91 11.91 0 0 0-8.064 3.01 12.583 12.583 0 0 0-2.753 3.472 16.347 16.347 0 0 0-1.679 4.876h23.378a17.51 17.51 0 0 0-.805-4.478 9.71 9.71 0 0 0-2.082-3.605 10.1 10.1 0 0 0-3.361-2.406 11.366 11.366 0 0 0-4.634-.869Z"/>
</svg>
